X:2174 
T:Keep the old petticoat warm 
C:E Clague & C Clague 
C:Traditional
O:Isle of Man
Z:Clague collection
B:Kiaull Vannin #174 
N:Like irish tunes: Galbally Farmer and Rakes of Kildare
N:In the last line (3rd & 5th bars) the top F 's have been sharpened compared to MS.
L:1/8
M:3/8 
Q:220 
K:C 
D|DGG|G^FG|ABc|d2e|fed|dcA|AGE|E2D| 
DGG|G^FG|ABc|d2e|fed|cA^F|G3|G2g| 
gdg|gdg|g^fg|_bag|fdd|ddc|ddc|_BAG| 
gdg|gdg|g^fg|_bag|^fdd|cA^F|G3|G2|| 

